X:1
T:Chelsea Bridge
M:4/4
L:1/8
Q:"Ballad" 1/4=90
C:Billy Strayhorn
Z:Luis Pablo Gasparotto
K:Db
V:1 name="Alto 1"
%%MIDI program 65
V:2 name="Alto 2"
%%MIDI program 65
V:3 name="Tenor"
%%MIDI program 66
V:4 name="Baritone"
%%MIDI program 67
V:5 name="Piano"
%%MIDI program 1
%
[V:1] z8 | z8 | z8 | z2 B,C DE (3F=GA !segno!|: 
[V:2] z8 | z8 | z8 | z8               !segno!|:
[V:3] z8 | z8 | z8 | z8               !segno!|:
[V:4] z8 | z8 | z8 | z8               !segno!|:
[V:5] z8 | z8 | z8 | z8               !segno!|:
%
[V:1] !mf!=A6 B=G- | =G6 A=A-| A2 B=G- G2 _A=D- | D8      |
[V:2] !ppp!F8      | E8      | F4       E4      | A,8     |
[V:3] !ppp!D8      | =B,8    | D4      =B,4     | F,8     |
[V:4] !ppp!B,8     | A,8     | B,4     A,4      | B,,8    | 
[V:5] "Eb7"z8      | "Db7"z8 | "Eb7"z4 "Db7"z4  | "Bb7"z8 |
%
[V:1] FD- D6  | FB,- B,6 | FD- D6-   |1 D2 B,C     DE    (3F=GA  :|2
[V:2] B,8     | G,8      | B,8-      |1 B,2 z6                   :|2
[V:3] =G,8    | E,8      | F,8-      |1 F,2 z6                   :|2
[V:4] E,8     | C,8      | D,8-      |1 D,2 z6                   :|2
[V:5] "Eb7"z8 | "Ab7"z8  | "Db6"z8   |1 z2 "C7"z2 "B7"z2 "Bb7"z2 :|2
%
[V:1] D6       z2    | 
[V:2] A,6      z2    |
[V:3] F,6      A,=A, |
[V:4] D,6      z2    |
[V:5] "Db6"z6 "B7"z2 | 
%
[V:1] [K:E] !ppp!C4        A,4  | B,4        C4       | C4       =C4   | B,4     =D4    |
[V:2] [K:E] A,4            F,4  | G,4       _B,4      | ^A,4     =A,4  | A,4     B,4    |
[V:3] [K:E] !mf!B,B,B,B,-  B,4  | B,D, (3E,G,B, D2 EC | B,GEC =C =G2 D | =D6     E,F,   |
[V:4] [K:E] F,4            D,4  | E,4       =G,4      | F,4      =F,4  | ^F,4    G,4    |
[V:5] [K:E] "F#m7"z4     "B7"z4 | "Emaj7"z4 "Gdim"z4  | "F#7"z4 "F7"z4 | "Bm7"z4 "E7"z4 |
%
[V:1] E4         G2      F2    | =D8            | =F8                | B,2     !mf!B,=C   _D_E   (3=F=G_A    |
[V:2] C4         =C2     C2    | B,8            | =D8                | =F,2    !mf!=G,G,    A,B,  (3=D_E=F   |
[V:3] G,3 A,     E2      =D=C  | B,=D- D4 =G,A, | _B,2 =G,B, =D2 B,D | =G,2    !mf!E,E,    F,F,  (3_B,=C=D   |
[V:4] E,4        A,2     A,2   | =G,8           | =G,8               | C,2     !mf!B,,=C, _D,_E, (3=F,=G,_A, |
[V:5] "Amaj7"z4 "Am7"z2 "D7"z2 | "Gmaj7"z8      | "Gm7"z8            | "Db7"z2 "C7"z2 "B7"z2 "Bb7"z2         | 
%
[V:1] [K:Db] =A6  B=G-   |  G6  A=A-   | A2   B=G-   G2  _A=D-   | D8      |
[V:2] [K:Db] F6  =GE-    |  E6  FF-    | F2  =GE-    E2   FA,-   | A,8     |
[V:3] [K:Db] D6   E=B,-  | =B,6 DD-    | D2   E=B,-  B,2  DF,-   | F,8     |
[V:4] [K:Db] =A,6 B,=G,- | =G,6 A,=A,- | =A,2 B,=G,- G,2 _A,=D,- | D,8     |
[V:5] [K:Db] "Eb7"z8     | "Db7"z8     | "Eb7"z4     "Db7"z4     | "Bb7"z8 |
%
[V:1] FD-   D6  | FB,-   B,6  | FD-   D6-    | D6 z2  !fine!|: 
[V:2] DB,-  B,6 | CG,-   G,6  | DB,-  B,6-   | B,6 z2 !fine!|:  
[V:3] A,G,- G,6 | A,E,-  E,6  | A,F,- F,6-   | F,6 z2 !fine!|:
[V:4] F,D,- D,6 | F,B,,- B,,6 | F,D,- D,6-   | D,6 z2 !fine!|: 
[V:5] "Ebm7"z8  | "Ab7"z8     | "Db6"z8      | z8     !fine!|:
%
[V:1] "Eb7"z8 | "Db7"z8  | "Eb7"z4 "Db7"z4 | "Bb7"z8 |
[V:2] "Eb7"z8 | "Db7"z8  | "Eb7"z4 "Db7"z4 | "Bb7"z8 |
[V:3] "Eb7"z8 | "Db7"z8  | "Eb7"z4 "Db7"z4 | "Bb7"z8 |
[V:4] "Eb7"z8 | "Db7"z8  | "Eb7"z4 "Db7"z4 | "Bb7"z8 |
[V:5] "Eb7"z8 | "Db7"z8  | "Eb7"z4 "Db7"z4 | "Bb7"z8 |
%
[V:1] "Eb7"z8 | "Ab7"z8  | "Db6"z8 | z8 ||
[V:2] "Eb7"z8 | "Ab7"z8  | "Db6"z8 | z8 ||
[V:3] "Eb7"z8 | "Ab7"z8  | "Db6"z8 | z8 ||
[V:4] "Eb7"z8 | "Ab7"z8  | "Db6"z8 | z8 ||
[V:5] "Eb7"z8 | "Ab7"z8  | "Db6"z8 | z8 ||
%
[V:1] "F#m7"z4 "B7"z4 | "Emaj7"z4 "Gdim"z4 | "F#7"z4 "F7"z4 | "Bm7"z4 "E7"z4 |
[V:2] "F#m7"z4 "B7"z4 | "Emaj7"z4 "Gdim"z4 | "F#7"z4 "F7"z4 | "Bm7"z4 "E7"z4 |
[V:3] "F#m7"z4 "B7"z4 | "Emaj7"z4 "Gdim"z4 | "F#7"z4 "F7"z4 | "Bm7"z4 "E7"z4 |
[V:4] "F#m7"z4 "B7"z4 | "Emaj7"z4 "Gdim"z4 | "F#7"z4 "F7"z4 | "Bm7"z4 "E7"z4 |
[V:5] "F#m7"z4 "B7"z4 | "Emaj7"z4 "Gdim"z4 | "F#7"z4 "F7"z4 | "Bm7"z4 "E7"z4 |
%
[V:1] "Amaj7"z4 "Am7"z2 "D7"z2 | "Gmaj7"z8 | "Gm7"z8 | "Db7"z2 "C7"z2 "B7"z2 "Bb7"z2 | 
[V:2] "Amaj7"z4 "Am7"z2 "D7"z2 | "Gmaj7"z8 | "Gm7"z8 | "Db7"z2 "C7"z2 "B7"z2 "Bb7"z2 | 
[V:3] "Amaj7"z4 "Am7"z2 "D7"z2 | "Gmaj7"z8 | "Gm7"z8 | "Db7"z2 "C7"z2 "B7"z2 "Bb7"z2 | 
[V:4] "Amaj7"z4 "Am7"z2 "D7"z2 | "Gmaj7"z8 | "Gm7"z8 | "Db7"z2 "C7"z2 "B7"z2 "Bb7"z2 | 
[V:5] "Amaj7"z4 "Am7"z2 "D7"z2 | "Gmaj7"z8 | "Gm7"z8 | "Db7"z2 "C7"z2 "B7"z2 "Bb7"z2 | 
%
[V:1] "Eb7"z8 | "Db7"z8 | "Eb7"z4 "Db7"z4 | "Bb7"z8 |
[V:2] "Eb7"z8 | "Db7"z8 | "Eb7"z4 "Db7"z4 | "Bb7"z8 |
[V:3] "Eb7"z8 | "Db7"z8 | "Eb7"z4 "Db7"z4 | "Bb7"z8 |
[V:4] "Eb7"z8 | "Db7"z8 | "Eb7"z4 "Db7"z4 | "Bb7"z8 |
[V:5] "Eb7"z8 | "Db7"z8 | "Eb7"z4 "Db7"z4 | "Bb7"z8 |
%
[V:1] "Ebm7"z8 | "Ab7"z8 | "Db6"z8 |1 z8 :|2
[V:2] "Ebm7"z8 | "Ab7"z8 | "Db6"z8 |1 z8 :|2
[V:3] "Ebm7"z8 | "Ab7"z8 | "Db6"z8 |1 z8 :|2
[V:4] "Ebm7"z8 | "Ab7"z8 | "Db6"z8 |1 z8 :|2
[V:5] "Ebm7"z8 | "Ab7"z8 | "Db6"z8 |1 z8 :|2
%
[V:1] z2 B,C DE (3F=GA !D.S.!|]
[V:2] z8               !D.S.!|]
[V:3] z8               !D.S.!|]
[V:4] z8               !D.S.!|]
[V:5] z8               !D.S.!|]
%% text Play Ending 1 till last solo
